packages/icons/src/assets/raw/outlined/SVG/outlined-finance-cards.svg

<svg xmlns="http://www.w3.org/2000/svg" viewBox="0 0 24 24">
  <path d="M14.79 19.05H3.25a1.77 1.77 0 01-1.75-1.76v-8.4a1.77 1.77 0 011.75-1.76h11.6a1.76 1.76 0 011.76 1.76v8.4a1.87 1.87 0 01-1.8 1.76zm.06-10.92H3.25a.76.76 0 00-.75.76v8.4a.77.77 0 00.76.76h11.53a.86.86 0 00.82-.8V8.89a.76.76 0 00-.76-.76z"/>
  <path d="M15.67 11.33H2a.5.5 0 01-.5-.5.5.5 0 01.5-.5h13.67a.5.5 0 01.5.5.5.5 0 01-.5.5zM14.17 13.21H3.94a.5.5 0 01-.5-.5.51.51 0 01.5-.5h10.23a.51.51 0 01.5.5.5.5 0 01-.5.5zM8.77 15.16H3.94a.51.51 0 01-.5-.5.5.5 0 01.5-.5h4.83a.5.5 0 01.5.5.5.5 0 01-.5.5z"/>
  <path d="M19.75 16.41H18a.51.51 0 01-.5-.5.5.5 0 01.5-.5h1.75a.76.76 0 00.75-.76v-8.4a.76.76 0 00-.76-.75H8.15a.64.64 0 00-.71.5.5.5 0 01-.6.38.49.49 0 01-.38-.59A1.61 1.61 0 018.19 4.5h11.56a1.76 1.76 0 011.75 1.75v8.4a1.76 1.76 0 01-1.75 1.76z"/>
  <path d="M20.56 8.64h-2.73a.5.5 0 01-.5-.5.5.5 0 01.5-.5h2.73a.5.5 0 01.5.5.5.5 0 01-.5.5zM19.12 10.52h-1.29a.5.5 0 01-.5-.5.5.5 0 01.5-.5h1.29a.5.5 0 01.5.5.5.5 0 01-.5.5z"/>
</svg>

<svg xmlns="http://www.w3.org/2000/svg" xmlns:xlink="http://www.w3.org/1999/xlink" viewBox="0 0 24 24">
  <defs>
    <clipPath id="a">
      <rect width="24" height="24"/>
    </clipPath>
  </defs>
  <title>outlined-finance-cards</title>
  <g>
    <g style="opacity: 0">
      <g>
        <rect width="24" height="24"/>
        <g style="clip-path: url(#a)">
          <g>
            <rect width="24" height="24"/>
            <path d="M12,21.5A9.5,9.5,0,1,1,21.5,12,9.51,9.51,0,0,1,12,21.5Zm0-18A8.5,8.5,0,1,0,20.5,12,8.51,8.51,0,0,0,12,3.5Z"/>
          </g>
        </g>
      </g>
    </g>
    <g>
      <path d="M14.79,19.05H3.25A1.77,1.77,0,0,1,1.5,17.29V8.89A1.77,1.77,0,0,1,3.25,7.13h11.6a1.76,1.76,0,0,1,1.76,1.76v8.4a1.87,1.87,0,0,1-1.8,1.76Zm.06-10.92H3.25a.76.76,0,0,0-.75.76v8.4a.77.77,0,0,0,.76.76H14.79a.86.86,0,0,0,.82-.8V8.89A.76.76,0,0,0,14.85,8.13Z"/>
      <path d="M15.67,11.33H2a.5.5,0,0,1-.5-.5.5.5,0,0,1,.5-.5H15.67a.5.5,0,0,1,.5.5A.5.5,0,0,1,15.67,11.33Z"/>
      <path d="M14.17,13.21H3.94a.5.5,0,0,1-.5-.5.51.51,0,0,1,.5-.5H14.17a.51.51,0,0,1,.5.5A.5.5,0,0,1,14.17,13.21Z"/>
      <path d="M8.77,15.16H3.94a.51.51,0,0,1-.5-.5.5.5,0,0,1,.5-.5H8.77a.5.5,0,0,1,.5.5A.5.5,0,0,1,8.77,15.16Z"/>
      <path d="M19.75,16.41H18a.51.51,0,0,1-.5-.5.5.5,0,0,1,.5-.5h1.75a.76.76,0,0,0,.75-.76V6.25a.76.76,0,0,0-.76-.75H8.15A.64.64,0,0,0,7.44,6a.5.5,0,0,1-.6.38.49.49,0,0,1-.38-.59A1.61,1.61,0,0,1,8.19,4.5H19.75A1.76,1.76,0,0,1,21.5,6.25v8.4A1.76,1.76,0,0,1,19.75,16.41Z"/>
      <path d="M20.56,8.64H17.83a.5.5,0,0,1-.5-.5.5.5,0,0,1,.5-.5h2.73a.5.5,0,0,1,.5.5A.5.5,0,0,1,20.56,8.64Z"/>
      <path d="M19.12,10.52H17.83a.5.5,0,0,1-.5-.5.5.5,0,0,1,.5-.5h1.29a.5.5,0,0,1,.5.5A.5.5,0,0,1,19.12,10.52Z"/>
    </g>
  </g>
</svg>
